X: 27245
T: Miss Sarah McFadyen
R: jig
M: 6/8
K: Amajor
A2 B|:cAF EAc|d~d~d egb|age d2B|cde dcB|cAF EAc|
d~d~d egb|age dBe|1 ABA A2B:|2 ABA A2 e||
|:f2 a ecA|BAB cAE|C2E F2A|dcd Bce|
fga ecA|BAa ecA|C2E F2A|1 GFG A2 e:|2 GFG A3||

